X:432
T:Tennessee Fiddler
C:Traditional 
N:Transcribed by Mike Stangeland
R:bluegrass
L:1/8
Q:1/4=230
M:4/4
K:G
z6 DC |: "G"B,G, B,D GF GA | Bd BA G=F ED | "C"CB, CD EG AB | cB cd (3BcB AG | 
"D"F=F ^FA d^c de | fa fe d^c de | fd Ad cA FD |1 G"G"E DB, G,2 DC :|2 G"G"E DB, G,2 Bd | 
|: "G"g2 gg g2 ga | bg af gf ed | "C"c2 cc c2 Gc | ec dB c2 Ac | "D"fe fa fe de | 
fa fe d^c de | fd Ad cA FD |1 G"G"E DB, G,2 Bd :|2 GE DB, G,4 | 


